layouts/img/icons/social/mail.svg

<svg width="16px" height="16px" viewBox="0 0 32 32" version="1.1" xmlns="http://www.w3.org/2000/svg" xmlns:xlink="http://www.w3.org/1999/xlink">
    <path d="M16.083798,0 C7.26134934,0 0.0837980498,7.17755129 0.0837980498,15.9998994 C0.0837980498,24.8224487 7.26134934,32 16.083798,32 C19.3274179,32 22.4540408,31.0229806 25.0962786,29.2171245 L22.9991878,26.779103 C20.9488757,28.0979585 18.5592424,28.809899 16.083798,28.809899 C9.02032625,28.809899 3.27389909,23.0634718 3.27389909,15.9998994 C3.27389909,8.9364276 9.02032625,3.19000044 16.083798,3.19000044 C23.1473705,3.19000044 28.8937976,8.9364276 28.8937976,15.9998994 C28.8937976,16.9301401 28.7893756,17.8550491 28.592,18.7547077 C28.1813541,20.4386376 27.0072609,20.9594397 26.105188,20.8889196 C25.2156899,20.817293 24.1589959,20.1831157 24.1520546,18.6169874 L24.1520546,15.9998994 C24.1520546,11.5512018 20.5325962,7.93174345 16.083798,7.93174345 C11.6352011,7.93174345 8.0155415,11.5512018 8.0155415,15.9998994 C8.0155415,20.4488988 11.6352011,24.0682566 16.083798,24.0682566 C18.3384272,24.0682566 20.37878,23.1375128 21.8442085,21.6416028 C22.7071484,23.0197112 24.1360593,23.9311399 25.8495654,24.0687595 C25.9924163,24.0802279 26.1350659,24.0858614 26.2773132,24.0858614 C27.4383285,24.0858614 28.5704718,23.7067031 29.5045353,22.9974787 C30.468678,22.2656196 31.1705586,21.2253233 31.564002,19.9668274 C31.6268765,19.7658302 31.7421632,19.300056 31.743471,19.2939194 L31.742968,19.2939194 C32.0053307,18.1579533 32.0838986,17.1099109 32.0838986,15.9998994 C32.0838986,7.17755129 24.9062468,0 16.083798,0 Z M11.2056425,15.9998994 C11.2056425,13.3101788 13.3940774,11.1218445 16.083798,11.1218445 C18.7736193,11.1218445 20.9619536,13.3101788 20.9619536,15.9998994 C20.9619536,18.6898212 18.7736193,20.8781555 16.083798,20.8781555 C13.3940774,20.8781555 11.2056425,18.6898212 11.2056425,15.9998994 Z" id="Clip-2" fill="#FFFFFF"></path>
</svg>

<svg width="16" height="16" viewBox="0 0 32 32" xmlns="http://www.w3.org/2000/svg"><path d="M16.084 0c-8.823 0-16 7.178-16 16s7.177 16 16 16c3.243 0 6.37-.977 9.012-2.783L23 26.78a12.76 12.76 0 0 1-6.915 2.03c-7.064 0-12.81-5.746-12.81-12.81 0-7.063 5.746-12.809 12.81-12.809 7.063 0 12.81 5.746 12.81 12.81 0 .93-.105 1.855-.302 2.755-.41 1.684-1.585 2.204-2.487 2.134-.89-.072-1.946-.706-1.953-2.272V16c0-4.449-3.62-8.068-8.068-8.068-4.449 0-8.068 3.62-8.068 8.068 0 4.449 3.62 8.068 8.068 8.068 2.254 0 4.295-.93 5.76-2.426a5.15 5.15 0 0 0 4.006 2.427 5.333 5.333 0 0 0 3.655-1.071c.964-.732 1.666-1.773 2.059-3.031.063-.201.178-.667.18-.673h-.001c.262-1.136.34-2.184.34-3.294 0-8.822-7.177-16-16-16zm-4.878 16a4.884 4.884 0 0 1 4.878-4.878A4.884 4.884 0 0 1 20.962 16a4.884 4.884 0 0 1-4.878 4.878A4.884 4.884 0 0 1 11.206 16z" fill="#FFF"/></svg>
